images_elementary_svg/sc/res/sf02.svg

<svg viewBox="0 0 16 16" xmlns="http://www.w3.org/2000/svg" xmlns:xlink="http://www.w3.org/1999/xlink"><linearGradient id="a" gradientTransform="matrix(.28571361 0 0 .30419701 1.142873 .232605)" gradientUnits="userSpaceOnUse" x1="25.132275" x2="25.132275" y1=".985206" y2="47.013336"><stop offset="0" stop-color="#f4f4f4"/><stop offset="1" stop-color="#dbdbdb"/></linearGradient><linearGradient id="b" gradientTransform="matrix(.24324324 0 0 .35135133 2.162164 -.432428)" gradientUnits="userSpaceOnUse" x1="23.99999" x2="23.99999" y1="6.923065" y2="41.076912"><stop offset="0" stop-color="#fff"/><stop offset="0" stop-color="#fff" stop-opacity=".235294"/><stop offset="1" stop-color="#fff" stop-opacity=".156863"/><stop offset="1" stop-color="#fff" stop-opacity=".392157"/></linearGradient><linearGradient id="c" gradientTransform="matrix(.25378586 0 0 .30501865 19.128979 -.685477)" gradientUnits="userSpaceOnUse" x1="-51.786404" x2="-51.786404" y1="50.786446" y2="2.906247"><stop offset="0" stop-opacity=".339506"/><stop offset="1" stop-opacity=".246914"/></linearGradient><linearGradient id="d" gradientTransform="matrix(.5655975 0 0 .56210625 -.076956 -7.931368)" gradientUnits="userSpaceOnUse" x1="28.059" x2="33.437" y1="18.868" y2="23.743"><stop offset="0" stop-color="#6e3d09"/><stop offset=".242" stop-color="#ea8113"/><stop offset=".621" stop-color="#5c3307"/><stop offset="1" stop-color="#e07c12"/></linearGradient><linearGradient id="e" gradientTransform="matrix(.55644553 0 0 .56273841 .184529 -7.948609)" gradientUnits="userSpaceOnUse" x1="20.250999" x2="22.011999" y1="29.811001" y2="31.724001"><stop offset="0" stop-color="#f2f2f2"/><stop offset="1" stop-color="#c3c3c3"/></linearGradient><radialGradient id="f" cx="15.415" cy="35.356998" gradientTransform="matrix(.45238318 0 0 .51180633 1.782173 -5.440078)" gradientUnits="userSpaceOnUse" r="7.579"><stop offset="0" stop-color="#650000"/><stop offset="1" stop-color="#fb66f5"/></radialGradient><g transform="translate(-1)"><path d="m3 1c2.2915074 0 9.999988.0008904 9.999988.0008904l.000012 13.9991096s-6.6666668 0-10 0c0-4.666666 0-9.3333336 0-14z" fill="url(#a)"/><g fill="none"><path d="m12.5 14.5h-9.0000001v-13h9.0000001z" stroke="url(#b)" stroke-linecap="round"/><path d="m2.4999621.49997396c2.5206756 0 11.0000629.000954 11.0000629.000954l.000013 14.99909804s-7.3333841 0-11.000076 0c0-5.000017 0-10.000035.0000001-15.00005204z" stroke="url(#c)" stroke-linejoin="round" stroke-width=".999922"/></g></g><path d="m13.09335 14.499965-11.5933433-11.6248402v11.6248402z" fill="none"/><path d="m13.247278 5.7779096 2.298769 2.1364175.912322-.9424949-.01006-4.8805718c-1.169495 1.3433426-2.277213 2.6349628-3.201031 3.6880859z" fill="url(#d)" stroke="#673907" stroke-linecap="round" stroke-width=".999964"/><path d="m8.3164207 12.098085 1.43673 1.239898 6.0486333-5.2727992c-.244244-.8807155-1.637872-2.4668655-2.679501-2.4668655l-4.8058623 6.4983297z" fill="url(#e)" stroke="#797b75" stroke-linecap="round" stroke-width=".999964"/><path d="m4.6671265 15.972945c3.0027657 0 5.2842929.416652 5.7153115-2.120613.349126-2.044467-2.0732009-3.024317-3.275744-1.19967-1.1522574 1.757121-2.436694 3.320283-2.436694 3.320283z" fill="url(#f)" stroke-width="1.43673"/></svg>

<?xml version="1.0" encoding="UTF-8" standalone="no"?>
<svg
   xmlns:dc="http://purl.org/dc/elements/1.1/"
   xmlns:cc="http://creativecommons.org/ns#"
   xmlns:rdf="http://www.w3.org/1999/02/22-rdf-syntax-ns#"
   xmlns:svg="http://www.w3.org/2000/svg"
   xmlns="http://www.w3.org/2000/svg"
   xmlns:xlink="http://www.w3.org/1999/xlink"
   xmlns:sodipodi="http://sodipodi.sourceforge.net/DTD/sodipodi-0.dtd"
   xmlns:inkscape="http://www.inkscape.org/namespaces/inkscape"
   viewBox="0 0 16 16"
   version="1.1"
   id="svg16"
   sodipodi:docname="sf02.svg"
   inkscape:version="0.92.3 (unknown)"
   inkscape:export-filename="/home/rizmut/Dokumen/Rizmut/Github/libreoffice-style-elementary/images_elementary/sc/res/sf02.png"
   inkscape:export-xdpi="96"
   inkscape:export-ydpi="96">
  <metadata
     id="metadata22">
    <rdf:RDF>
      <cc:Work
         rdf:about="">
        <dc:format>image/svg+xml</dc:format>
        <dc:type
           rdf:resource="http://purl.org/dc/dcmitype/StillImage" />
        <dc:title></dc:title>
      </cc:Work>
    </rdf:RDF>
  </metadata>
  <defs
     id="defs20">
    <linearGradient
       gradientTransform="matrix(0.28571361,0,0,0.30419701,1.1428727,0.2326048)"
       gradientUnits="userSpaceOnUse"
       xlink:href="#linearGradient3600"
       id="linearGradient3940"
       y2="47.013336"
       x2="25.132275"
       y1="0.98520643"
       x1="25.132275" />
    <linearGradient
       id="linearGradient3600">
      <stop
         offset="0"
         style="stop-color:#f4f4f4;stop-opacity:1"
         id="stop3602" />
      <stop
         offset="1"
         style="stop-color:#dbdbdb;stop-opacity:1"
         id="stop3604" />
    </linearGradient>
    <linearGradient
       gradientTransform="matrix(0.24324324,0,0,0.35135133,2.1621636,-0.43242804)"
       gradientUnits="userSpaceOnUse"
       xlink:href="#linearGradient3977"
       id="linearGradient3095"
       y2="41.076912"
       x2="23.99999"
       y1="6.9230647"
       x1="23.99999" />
    <linearGradient
       id="linearGradient3977">
      <stop
         offset="0"
         style="stop-color:#ffffff;stop-opacity:1"
         id="stop3979" />
      <stop
         offset="0"
         style="stop-color:#ffffff;stop-opacity:0.23529412"
         id="stop3981" />
      <stop
         offset="1"
         style="stop-color:#ffffff;stop-opacity:0.15686275"
         id="stop3983" />
      <stop
         offset="1"
         style="stop-color:#ffffff;stop-opacity:0.39215687"
         id="stop3985" />
    </linearGradient>
    <linearGradient
       gradientTransform="matrix(0.25378586,0,0,0.30501865,19.128979,-0.68547704)"
       gradientUnits="userSpaceOnUse"
       xlink:href="#linearGradient3104-9"
       id="linearGradient3092"
       y2="2.9062471"
       x2="-51.786404"
       y1="50.786446"
       x1="-51.786404" />
    <linearGradient
       id="linearGradient3104-9">
      <stop
         offset="0"
         style="stop-color:#000000;stop-opacity:0.33950618"
         id="stop3106-5" />
      <stop
         offset="1"
         style="stop-color:#000000;stop-opacity:0.24691358"
         id="stop3108-5" />
    </linearGradient>
    <linearGradient
       id="g"
       gradientTransform="matrix(-0.9975,0,0,-0.9975,45.98,33.86)"
       gradientUnits="userSpaceOnUse"
       x1="35.452999"
       x2="35.452999"
       y1="31.551001"
       y2="18.889999">
      <stop
         offset="0"
         stop-color="#fff"
         id="stop2125" />
      <stop
         offset="1"
         stop-color="#fff"
         stop-opacity="0"
         id="stop2127" />
    </linearGradient>
    <linearGradient
       id="d"
       y2="23.743"
       gradientUnits="userSpaceOnUse"
       x2="33.437"
       gradientTransform="matrix(0.5655975,0,0,0.56210625,-0.076956,-7.931368)"
       y1="18.868"
       x1="28.059">
      <stop
         offset="0"
         stop-color="#6e3d09"
         id="stop3128" />
      <stop
         offset=".242"
         stop-color="#ea8113"
         id="stop3130" />
      <stop
         offset=".621"
         stop-color="#5c3307"
         id="stop3132" />
      <stop
         offset="1"
         stop-color="#e07c12"
         id="stop3134" />
    </linearGradient>
    <linearGradient
       id="e"
       y2="31.724001"
       xlink:href="#b"
       gradientUnits="userSpaceOnUse"
       x2="22.011999"
       gradientTransform="matrix(0.55644553,0,0,0.56273841,0.1845289,-7.9486088)"
       y1="29.811001"
       x1="20.250999" />
    <linearGradient
       id="b">
      <stop
         offset="0"
         stop-color="#f2f2f2"
         id="stop3138" />
      <stop
         offset="1"
         stop-color="#c3c3c3"
         id="stop3140" />
    </linearGradient>
    <radialGradient
       id="f"
       gradientUnits="userSpaceOnUse"
       cy="35.356998"
       cx="15.415"
       gradientTransform="matrix(0.45238318,0,0,0.51180633,1.7821727,-5.4400782)"
       r="7.579">
      <stop
         offset="0"
         stop-color="#650000"
         id="stop3143" />
      <stop
         offset="1"
         stop-color="#fb66f5"
         id="stop3145" />
    </radialGradient>
  </defs>
  <sodipodi:namedview
     pagecolor="#ffffff"
     bordercolor="#666666"
     borderopacity="1"
     objecttolerance="10"
     gridtolerance="10"
     guidetolerance="10"
     inkscape:pageopacity="0"
     inkscape:pageshadow="2"
     inkscape:window-width="1366"
     inkscape:window-height="706"
     id="namedview18"
     showgrid="false"
     inkscape:zoom="14.75"
     inkscape:cx="-0.73609702"
     inkscape:cy="7.4173698"
     inkscape:window-x="0"
     inkscape:window-y="0"
     inkscape:window-maximized="1"
     inkscape:current-layer="svg16" />
  <g
     id="g1960"
     transform="translate(-1)">
    <path
       inkscape:connector-curvature="0"
       style="display:inline;fill:url(#linearGradient3940);fill-opacity:1;stroke:none"
       id="path4160"
       d="m 3,1 c 2.2915074,0 9.999988,8.904e-4 9.999988,8.904e-4 L 13,15 C 13,15 6.3333332,15 3,15 3,10.333334 3,5.6666664 3,1 Z" />
    <path
       inkscape:connector-curvature="0"
       style="fill:none;stroke:url(#linearGradient3095);stroke-width:1;stroke-linecap:round;stroke-linejoin:miter;stroke-miterlimit:4;stroke-dasharray:none;stroke-dashoffset:0;stroke-opacity:1"
       id="rect6741-1"
       d="M 12.5,14.5 H 3.4999999 V 1.5 H 12.5 Z" />
    <path
       inkscape:connector-curvature="0"
       style="display:inline;fill:none;stroke:url(#linearGradient3092);stroke-width:0.99992192;stroke-linecap:butt;stroke-linejoin:round;stroke-miterlimit:4;stroke-dasharray:none;stroke-dashoffset:0;stroke-opacity:1"
       id="path4160-8"
       d="m 2.4999621,0.49997396 c 2.5206756,0 11.0000629,9.54e-4 11.0000629,9.54e-4 l 1.3e-5,14.99909804 c 0,0 -7.3333841,0 -11.000076,0 0,-5.000017 0,-10.000035 10e-8,-15.00005204 z" />
  </g>
  <g
     id="g3795">
    <path
       id="path12"
       fill="none"
       d="m13.09335 14.499965-11.5933433-11.6248402v11.6248402z" />
    <path
       id="path3154"
       d="m 13.247278,5.7779096 2.298769,2.1364175 0.912322,-0.9424949 -0.01006,-4.8805718 C 15.278814,3.434603 14.171096,4.7262232 13.247278,5.7793463 Z"
       style="fill:url(#d);stroke:#673907;stroke-width:0.99996406;stroke-linecap:round"
       inkscape:connector-curvature="0" />
    <path
       id="path3156"
       d="m 8.3164207,12.098085 1.43673,1.239898 6.0486333,-5.2727992 C 15.55754,7.1844683 14.163912,5.5983183 13.122283,5.5983183 L 8.3164207,12.096648 Z"
       style="fill:url(#e);stroke:#797b75;stroke-width:0.99996406;stroke-linecap:round"
       inkscape:connector-curvature="0" />
    <path
       id="path3158"
       d="m 4.6671265,15.972945 c 3.0027657,0 5.2842929,0.416652 5.7153115,-2.120613 C 10.731564,11.807865 8.3092371,10.828015 7.106694,12.652662 5.9544366,14.409783 4.67,15.972945 4.67,15.972945 Z"
       style="fill:url(#f);stroke-width:1.43673003"
       inkscape:connector-curvature="0" />
  </g>
</svg>
